frontend/src/components/PlatformSelect/macos9.svg

<?xml version="1.0" encoding="UTF-8" standalone="no"?>
<!-- Created with Inkscape (http://www.inkscape.org/) -->

<svg
   xmlns:dc="http://purl.org/dc/elements/1.1/"
   xmlns:cc="http://creativecommons.org/ns#"
   xmlns:rdf="http://www.w3.org/1999/02/22-rdf-syntax-ns#"
   xmlns:svg="http://www.w3.org/2000/svg"
   xmlns="http://www.w3.org/2000/svg"
   xmlns:sodipodi="http://sodipodi.sourceforge.net/DTD/sodipodi-0.dtd"
   xmlns:inkscape="http://www.inkscape.org/namespaces/inkscape"
   width="8.4710464mm"
   height="10.9614mm"
   viewBox="0 0 8.4710464 10.9614"
   version="1.1"
   id="svg8"
   inkscape:version="0.92.1 r15371"
   sodipodi:docname="Happy Mac.svg">
  <defs
     id="defs2" />
  <sodipodi:namedview
     id="base"
     pagecolor="#ffffff"
     bordercolor="#666666"
     borderopacity="1.0"
     inkscape:pageopacity="0.0"
     inkscape:pageshadow="2"
     inkscape:zoom="8"
     inkscape:cx="4.1053318"
     inkscape:cy="14.867275"
     inkscape:document-units="mm"
     inkscape:current-layer="layer1"
     showgrid="false"
     inkscape:measure-start="0,0"
     inkscape:measure-end="0,0"
     showguides="true"
     inkscape:guide-bbox="true"
     inkscape:window-width="1600"
     inkscape:window-height="838"
     inkscape:window-x="-8"
     inkscape:window-y="-8"
     inkscape:window-maximized="1"
     inkscape:pagecheckerboard="true"
     fit-margin-top="0"
     fit-margin-left="0"
     fit-margin-right="0"
     fit-margin-bottom="0" />
  <metadata
     id="metadata5">
    <rdf:RDF>
      <cc:Work
         rdf:about="">
        <dc:format>image/svg+xml</dc:format>
        <dc:type
           rdf:resource="http://purl.org/dc/dcmitype/StillImage" />
        <dc:title></dc:title>
      </cc:Work>
    </rdf:RDF>
  </metadata>
  <g
     inkscape:label="Livello 1"
     inkscape:groupmode="layer"
     id="layer1"
     transform="translate(-5.3090212,-4.3002038)">
    <g
       id="g4959"
       transform="matrix(0.06455006,0,0,0.06455006,7.6050574,7.0900779)">
      <path
         id="rect43-8"
         d="m -30.937651,99.78759 h 122 v 26.80449 h -122 z"
         style="fill:#000000;fill-opacity:1;stroke-width:2.38412714"
         inkscape:connector-curvature="0" />
      <g
         transform="translate(-56.456402,-31.41017)"
         id="g4916">
        <path
           inkscape:connector-curvature="0"
           style="fill:#555555;fill-opacity:1;stroke:none;stroke-width:0.17674622"
           d="m 33.668747,136.75006 v 4.69998 h 31.950504 v -4.69998 z m 41.740088,4.69998 V 146.15 h 11.145573 v -4.69996 z M 91.152059,146.15 v 6.29987 H 102.47075 V 146.15 Z"
           id="rect57-8-2" />
        <path
           inkscape:connector-curvature="0"
           style="fill:#444444;fill-opacity:1;stroke:none;stroke-width:0.15800072"
           d="m 65.619251,136.75006 v 4.69998 H 86.554408 V 146.15 h 15.916342 v 6.29987 h 20.86023 V 146.15 h -15.87449 v -4.69996 H 91.152059 v -4.69998 z"
           id="rect57-8-0-6" />
        <path
           inkscape:connector-curvature="0"
           style="fill:#222222;fill-opacity:1;stroke:none;stroke-width:0.21712606"
           d="m 91.152059,136.75006 v 4.69998 H 107.45649 V 146.15 h 15.87449 v 6.29987 h 16.03777 v -6.29987 -4.69996 -4.69998 z"
           id="rect57-8-0-8-8" />
        <path
           inkscape:connector-curvature="0"
           style="fill:#777777;fill-opacity:1;stroke:none;stroke-width:0.20201708"
           d="M 33.668747,141.45004 V 146.15 h 41.740088 v -4.69996 z M 75.408835,146.15 v 6.29987 H 91.152059 V 146.15 Z"
           id="rect57-8-4-4" />
        <path
           id="rect57-1-3-5-6"
           d="m 33.668823,146.14999 h 41.74001 v 6.3 h -41.74001 z"
           style="fill:#888888;fill-opacity:1;stroke:none;stroke-width:0.23388879"
           inkscape:connector-curvature="0" />
      </g>
      <path
         id="rect325"
         d="M -30.969854,-37.120319 H 91.062349 V 99.787579 H -30.969854 Z"
         style="fill:#cccccc;fill-opacity:1;stroke-width:0.26458332"
         inkscape:connector-curvature="0" />
      <path
         id="rect327"
         d="M -15.075892,-21.040775 H 74.98512 v 67.75 h -90.061012 z"
         style="fill:#ccccff;fill-opacity:1;stroke-width:0.26458332"
         inkscape:connector-curvature="0" />
      <path
         id="rect237-98"
         transform="scale(0.26458333)"
         d="M 102.17383,-23.402344 V 59.882812 H 83.148438 V 78.779297 H 102.17383 120 120.0508 V -23.402344 Z"
         style="fill:#000000;fill-opacity:1;stroke-width:0.93718952"
         inkscape:connector-curvature="0" />
      <path
         id="rect43"
         d="M -30.969856,-43.220318 H 91.062347 v 6.1 H -30.969856 Z"
         style="fill:#000000;fill-opacity:1;stroke-width:1.13749063"
         inkscape:connector-curvature="0" />
      <path
         id="rect43-1"
         d="M -15.075892,-27.140776 H 74.98512 v 6.1 h -90.061012 z"
         style="fill:#444444;fill-opacity:1;stroke-width:0.97719014"
         inkscape:connector-curvature="0" />
      <path
         id="rect43-1-2"
         d="m -21.040775,15.075892 h 67.75 v 6.1 h -67.75 z"
         style="fill:#444444;fill-opacity:1;stroke-width:0.84755003"
         transform="rotate(90)"
         inkscape:connector-curvature="0" />
      <path
         id="rect43-1-2-1"
         d="m -21.040775,-81.085121 h 67.75 v 6.1 h -67.75 z"
         style="fill:#ffffff;fill-opacity:1;stroke-width:0.84755009"
         transform="rotate(90)"
         inkscape:connector-curvature="0" />
      <path
         id="rect43-1-7"
         d="m -15.07589,46.709225 h 90.061013 v 6.1 H -15.07589 Z"
         style="fill:#ffffff;fill-opacity:1;stroke-width:0.9771902"
         inkscape:connector-curvature="0" />
      <path
         id="rect169"
         d="m 31.655506,73.81324 h 43.400002 v 5 H 31.655506 Z"
         style="fill:#000000;fill-opacity:1;stroke-width:0.26445001"
         inkscape:connector-curvature="0" />
      <path
         id="rect169-1"
         d="m 31.655506,78.81324 h 43.400005 v 6 H 31.655506 Z"
         style="fill:#ffffff;fill-opacity:1;stroke-width:0.28969046"
         inkscape:connector-curvature="0" />
      <path
         id="rect169-9"
         d="m -21.133041,73.785721 h 11.060395 v 5 h -11.060395 z"
         style="fill:#00bb00;fill-opacity:1;stroke-width:0.13350084"
         inkscape:connector-curvature="0" />
      <path
         id="rect169-1-3"
         d="m -21.133041,78.785721 h 11.060396 v 6 h -11.060396 z"
         style="fill:#dd0000;fill-opacity:1;stroke-width:0.14624284"
         inkscape:connector-curvature="0" />
      <path
         id="rect237"
         d="M 5.8799295,-6.1919641 H 10.87993 V 5.0080357 H 5.8799295 Z"
         style="fill:#000000;fill-opacity:1;stroke-width:0.26576424"
         inkscape:connector-curvature="0" />
      <path
         id="rect237-9"
         d="m 47.880306,-6.1919641 h 6.1 V 5.0080357 h -6.1 z"
         style="fill:#000000;fill-opacity:1;stroke-width:0.29354623"
         inkscape:connector-curvature="0" />
      <path
         id="rect237-0"
         d="m 10.8871,25.947487 h 5 v 6 h -5 z"
         style="fill:#000000;fill-opacity:1;stroke-width:0.19451953"
         inkscape:connector-curvature="0" />
      <path
         id="rect237-0-7"
         d="m 38.149635,25.944651 h 4.75 v 6.002836 h -4.75 z"
         style="fill:#000000;fill-opacity:1;stroke-width:0.18963902"
         inkscape:connector-curvature="0" />
      <path
         id="rect319"
         d="m 15.8871,31.947487 h 22.262533 v 5.011021 H 15.8871 Z"
         style="fill:#000000;fill-opacity:1;stroke-width:11.12128639"
         inkscape:connector-curvature="0" />
      <path
         id="rect43-5-3-4"
         d="M -37.120319,30.969854 H 99.787579 v 4.6 H -37.120319 Z"
         style="fill:#000000;fill-opacity:1;stroke-width:1.04625833"
         transform="rotate(90)"
         inkscape:connector-curvature="0" />
      <path
         id="rect43-5-3-4-9"
         d="M -37.120331,-95.662346 H 99.787582 v 4.6 H -37.120331 Z"
         style="fill:#000000;fill-opacity:1;stroke-width:1.04625833"
         transform="rotate(90)"
         inkscape:connector-curvature="0" />
    </g>
  </g>
</svg>

<?xml version="1.0" encoding="UTF-8"?>
<svg width="8.471mm" height="10.961mm" version="1.1" xmlns="http://www.w3.org/2000/svg">
 <g transform="translate(-5.309 -4.3002)">
  <g transform="matrix(.06455 0 0 .06455 7.6051 7.0901)">
   <path d="m-30.938 99.788h122v26.804h-122z" stroke-width="2.3841"/>
   <g transform="translate(-56.456 -31.41)">
    <path d="m33.669 136.75v4.7h31.951v-4.7zm41.74 4.7v4.7h11.146v-4.7zm15.743 4.7v6.2999h11.319v-6.2999z" fill="#555"/>
    <path d="m65.619 136.75v4.7h20.935v4.7h15.916v6.2999h20.86v-6.2999h-15.874v-4.7h-16.304v-4.7z" fill="#444"/>
    <path d="m91.152 136.75v4.7h16.304v4.7h15.874v6.2999h16.038v-15.7z" fill="#222"/>
    <path d="m33.669 141.45v4.7h41.74v-4.7zm41.74 4.7v6.2999h15.743v-6.2999z" fill="#777"/>
    <path d="m33.669 146.15h41.74v6.3h-41.74z" fill="#888"/>
   </g>
   <path d="m-30.97-37.12h122.03v136.91h-122.03z" fill="#ccc" stroke-width=".26458"/>
   <path d="m-15.076-21.041h90.061v67.75h-90.061z" fill="#ccf" stroke-width=".26458"/>
   <path transform="scale(.26458)" d="m102.17-23.402v83.285h-19.025v18.896h36.902v-102.18z" stroke-width=".93719"/>
   <path d="m-30.97-43.22h122.03v6.1h-122.03z" stroke-width="1.1375"/>
   <path d="m-15.076-27.141h90.061v6.1h-90.061z" fill="#444" stroke-width=".97719"/>
   <path transform="rotate(90)" d="m-21.041 15.076h67.75v6.1h-67.75z" fill="#444" stroke-width=".84755"/>
   <path transform="rotate(90)" d="m-21.041-81.085h67.75v6.1h-67.75z" fill="#fff" stroke-width=".84755"/>
   <path d="m-15.076 46.709h90.061v6.1h-90.061z" fill="#fff" stroke-width=".97719"/>
   <path d="m31.656 73.813h43.4v5h-43.4z" stroke-width=".26445"/>
   <path d="m31.656 78.813h43.4v6h-43.4z" fill="#fff" stroke-width=".28969"/>
   <path d="m-21.133 73.786h11.06v5h-11.06z" fill="#0b0" stroke-width=".1335"/>
   <path d="m-21.133 78.786h11.06v6h-11.06z" fill="#d00" stroke-width=".14624"/>
   <g>
    <path d="m5.8799-6.192h5v11.2h-5z" stroke-width=".26576"/>
    <path d="m47.88-6.192h6.1v11.2h-6.1z" stroke-width=".29355"/>
    <path d="m10.887 25.947h5v6h-5z" stroke-width=".19452"/>
    <path d="m38.15 25.945h4.75v6.0028h-4.75z" stroke-width=".18964"/>
    <path d="m15.887 31.947h22.263v5.011h-22.263z" stroke-width="11.121"/>
    <path transform="rotate(90)" d="m-37.12 30.97h136.91v4.6h-136.91z" stroke-width="1.0463"/>
    <path transform="rotate(90)" d="m-37.12-95.662h136.91v4.6h-136.91z" stroke-width="1.0463"/>
   </g>
  </g>
 </g>
</svg>
